X:1484
T:Roseland Hill
R:reel
N:"collected from Walsh"
B:"O'Neill's Dance Music of Ireland, 1484"
T: cnoc baile-na-ros.
Z:transcribed by John B. Walsh, 8/22/96
M:2/4
L:1/16
K:G
G2BA GABd|e2 ef edBA|G2BA GABc|dBAB AFED|
G2BA GABd|e2 ef edBA|G2BA GABc|dBAB G2 z2||
e2eB e2 z2|edef gfeg|fddc defg|abaf gfed|
e2eB e2 z2|edef g2fg|agfa gfeg|edef edBA||


